Sources/FrostedUI/Resources/Icons.xcassets/checkmarkCircleFilled20.imageset/checkmark-circle-filled-20.svg

<svg width="20" height="20" viewBox="0 0 20 20" fill="none" xmlns="http://www.w3.org/2000/svg" data-fui-icon="true">
  <path
    d="M10 0C15.5228 0 20 4.47715 20 10C20 15.5228 15.5228 20 10 20C4.47715 20 0 15.5228 0 10C0 4.47715 4.47715 0 10 0ZM14.6846 6.62891C14.385 6.34329 13.9099 6.35392 13.624 6.65332L8.34863 12.1797L6.39062 10.0029C6.11349 9.6954 5.63881 9.67029 5.33105 9.94727C5.02363 10.2242 4.99897 10.6981 5.27539 11.0059L7.77539 13.7842L7.83008 13.8389C7.96437 13.9602 8.13956 14.0295 8.32227 14.0322C8.53094 14.0352 8.73187 13.9508 8.87598 13.7998L14.709 7.68945C14.9948 7.38994 14.9838 6.91493 14.6846 6.62891Z"
    fill="currentColor"
  />
</svg>

<svg xmlns="http://www.w3.org/2000/svg" width="20" height="20" fill="none" data-fui-icon="true" viewBox="0 0 20 20"><path fill="currentColor" d="M10 0c5.523 0 10 4.477 10 10s-4.477 10-10 10S0 15.523 0 10 4.477 0 10 0m4.685 6.629a.75.75 0 0 0-1.061.024L8.349 12.18 6.39 10.003a.75.75 0 0 0-1.116 1.003l2.5 2.778.055.055a.75.75 0 0 0 1.046-.04l5.833-6.11a.75.75 0 0 0-.024-1.06"/></svg>
